X:46
% %NRChange 2008-02-24
T: Marche a Queteux Pomerleau
C: attr Henri Landry
R:March
M: 2/4
Q: 1/4=80
L: 1/8
K: Gmaj
%P: A
D |: "G"GA/G/ "D"FD | "C"ED/C/ "G"DD | GA GB | G/A/B/G/ "D"DD |
"G"GA/G/ "D"FD | "C"ED/C/ "G"DD |GD GB |[1 G2 G3/D/ :|[2 G2 GA/B/ |]
%P:B
"C"c2 "G"B2 | "D"BA/G/ A2 | "G"GD GA | BA/G/ "D"AA/B/ | "C"cz "G"B2 |"D"BA/G/ A3/A/ |
"G"GD GB |[1 G2 GA/B/ :|[2G/A/B/G/ "D"DD |]

